X: 21481
M: 6/8
L: 1/8
K: D
f3 fg^g | a3- agf | (gf).e (fe).d | (fe).A Ade |\
f3 (fg^g) | a3- agf | (gf)e (ba)c | d3 d |]
cd |\
e3 e^ga | e3 e^bc' | e'3 e'c'a | c'^b=b agf |\
e3 e^ga | c'3 c'ba | b3 ba^g | a3 Ade !segno!|]
[d'/d/][d'/d/] |\
[d'3d3]- [d'd][d'd][d'd] | [d'3d3]- [d'2d2] [b/B/][b/B/] |\
[b2B2] [b/B/][b/B/] [b3B3] | [b3B3] [b2B2]A |\


